X:56
T:Roll, Boys, Roll
M:C|
L:1/8
Q:1/4=150
K:CDor
c2|\
c3d(cB)GA|B2B2 B2G2|c4 d4|c2B2 G4|
c3d(cB)GA|B2G2 F2B,2|E4 G3F|E2C2 C2||
